X:0403
T:Queen's Welcome
P:Loch Earn
C:Niel Gow's 2nd Collection 1788
R:Reel (8x32)
B:RSCDS 4-3
Z:Anselm Lingnau <anselm@strathspey.org>
M:C
L:1/8
K:G
"G"[g2d2B2G2]dB G2BG|"Am"E2AG FDD2|"G"[g2d2B2G2]dB G2BG|"Am"EA"D"FD "G"G2Bd|
"G"[g2d2B2G2]dB G2BG|"Am"E2AG FDD2|"G"[g2d2B2G2]dB G2BG|"Am"EA"D"FD "G"G2Bd||
"Em"efge "B7"fgaf|"Em"gfge "D"fddf|\
            "Em"ef"A7"ge "D"fg"D7"af|"G"gf"D7"ed "G"g2 Bd|
"C"efge "G"dBgB|"Am"ca"G"Bg "D"AF"D7"ED|"G"GABG "C"EGce|"D7"dBcA "G"G2 z2|]
